X:99
T:O'Sullivan's Polka
R:polka
D:Kevin Conneff: The Week before Easter
Z:id:hn-polka-99
M:2/4
L:1/8
K:G
B2 G2|de/f/ gB|A2 AB|de/d/ BA|B2 G2|de/f/ gB|AA BA|1 GF GA:|2 GF Gg||
|:fa d2|e>d BA|B>A GE|B>A GE|fa d2|e>d BA|B>A GB/d/|g2 g2:|
<end>
<start>
